X: 16284
T: Grian Ri, The
R: reel
M: 4/4
K: Dmajor
FA A2 dAFA|A2 dA FAAF|GB B2 dBGB|B2 dB GBBG|
FA A2 dAFA|A2 dA FAAF|GB B2 Ad d2|1 cdec dBAG:|2 cdec defd||
cAcd e3g|faaf defd|cA A2 GAFA|EA A2 edcB|
cAcd eAeg|faaf defa|g2fg agfe|1 d2ce defd:|2 d2ce dBAG||

